X:1
T: Johann Herrmann 1515 - 1593
T:Parvulus nobis
%%score [ 1 2 3 4 ]
L:1/8
Q:1/4=420
M:4/4
K:C
V:1 treble nm="Discantus"
V:2 treble nm="Altus"
V:3 treble nm="Tenor"
V:4 treble nm="Bassus"
V:1
"^;""^A" x2"^ã" ||[K:F][M:3/1] G8 G8 G8 | d16 d8 | d16 d8 | d12 c4 B8 | A16 z8 | %6
w: |Par- vu- lus|no- bis|na- sci-|tur * *||
w: |Hu- ic om-|nes in-|fan- tu-|lo * *||
w: |Re- gem ha-|be- mus|glo- ri-|æ * *||
[M:3/1] F12 G4 A4 B4 | c12 B4 A4 G4 | A16 B8 | G16 ^F8 | G16 z8 | A8 A8 A8 | c16 c8 | A16 G8 | %14
w: de vir * *|* gi * *|ne pro-|gre- di-|tur|cu- i- læ-|ten- tur|An- ge-|
w: con- cin * *|* ni * *|te mel-|li- flu-|o|ia- cen- ti|in- cu-|na- bu-|
w: na- tum * *|* ab * *|Ly- ma-|so- ri-|ae|u- ni- cum|DE- I|Fi- li-|
 F16 z8 | G8 G8 G8 | E16 F8 | D16 ^C8 | D16 z8 | z24 | F16 G8 | A16 G8 | F16 G8 | A16 A8 | c16 c8 | %25
w: li|gra- tu- le-|mur nos|fer- vu-|li|||||a in|sem- pi-|
w: lo|vi- li pro-|stra- tu|le- ctu-|lo||Tri- ni-|ta- ti|glo- ri-|||
w: um|lu- stran- tem|o- mne|sæ- cu-|lum|||||||
 A16 G8 | F8 z4 G4 A8 | B8 A12 G4 | G16 ^F8 | x24 |] %30
w: ter- *|na sæ *||* cu-||
w: |||||
w: |||||
V:2
"^;""^C" x2"^ã" ||[K:F][M:3/1] z24 | G,8 G,8 G,8 | D16 D8 | D16 D8 | D12 C4 B,8 |[M:3/1] A,16 z8 | %7
w: ||Par- vu- lus|no- bis|na- sci-|tur * *|\_\_\_|
w: ||Hu- ic om-|nes in-|fan- tu-|lo * *|\_\_\_|
w: ||Re- gem ha-|be- mus|glo- ri-|æ * *|\_\_\_|
 E8 E8 E8 | F16 F8 | _E8 D16 | B,12 C4"^(  )" D4 E4 | F8 F8 F8 | E16 E8 | D16 C8 | D16 z8 | %15
w: de vir- gi-|ne pro-|gre- di-|tur * * *|cu- i læ-|ten- tur|An- ge-|li|
w: con- cin- ni-|te mel-|li- flu-|o * * *|ia- cen- ti|in- cu-|na- bu-|lo|
w: na- tum ab|Ly- ma-|so- ri-|ae * * *|u- ni- cum|DE- I|Fi- li-|um|
 D8 D8 D8 | C16 C8 | B,8 A,16 | F,16 G,8 | A,16 z8 | D16 D8 | D16 D8 | D16 E8 | F16 F8 | E16 E8 | %25
w: gra- tu- le-|mur nos|fer- vu-|li *|||||a in|sem- pi-|
w: vi- li pro-|stra- tu|le- ctu-|lo *||Tri- ni-|ta- ti|glo- ri-|||
w: li- stran- tem|o- mne|sæ- cu-|lum, *|||||||
 F16 C8 | D12 C4 D4 E4 | F16 F8 | _E8 D16 | x24 |] %30
w: ter- na|sæ- * * *|* cu|||
w: |||||
w: |||||
V:3
"^;""^C" x2"^ã" ||[K:F][M:3/1][K:treble-8] z24 | z24 | G8 G8 G8 | d16 d8 | d16 d8 | %6
w: |||Par- vu- lus|no- bis|na- sci-|
w: |||Hu- ic om-|nes in-|fan- tu-|
w: |||Re- gem ha-|be- mus|glo- ri-|
[M:3/1][K:treble-8] d16 z8 | c8 c8 c8 | c16 d8 | B8 A16 | G16 z8 | c8 c8 c8 | c16 A8 | F16 G8 | %14
w: tur|de vir- gi-|ne pro-|gre- di-|tur|cu- i læ-|ten- tur|An- ge-|
w: lo|con- cin- ni-|te mel-|li- flu-|o|ia- cen- ti|in- cu-|na- bu-|
w: æ|na- tum ab|Ly- ma-|so- ri-|æ|u- ni- cum|DE- I|Fi- li-|
 A16 z8 | G8 G8 G8 | G16 A8 | F8 E16 | D16 z8 | F16 G8 | A16 G8 | F16 G8 | A16 B8 | c16 c8 | %24
w: li|gra- tu- le-|mur nos|fer- vu-|le|||||sae- cu-|
w: lo|vi- li pro-|stra- tu|le- ctu-|lo|Glo- ri-|a in|sem- pi-|ter- na||
w: um|li- stran- tem|o- mne|sæ- cu-|lo||||||
 c16 A8 | F16 G8 | A24 | d16 c8 | B8 A16 | x24 |] %30
w: la, sae-|* cu-|la,|sæ- *|* cu-||
w: ||||||
w: ||||||
V:4
"^;""^:""^:""^Q" x2"^ã" ||[K:F][M:3/1][K:bass] z24 | z24 | z24 | G,,8 G,,8 G,,8 | D,16 D,8 | %6
w: ||||Par- vu- lus|no- bis|
w: ||||Hu- ic om-|nes in-|
w: ||||Re- gem ha-|be- mus|
[M:3/1] D,8 D,8 D,8 | A,8 A,8 A,8 | F,16 D,8 | G,8 D,16 | G,,24 | F,8 F,8 F,8 | C,16 C,8 | %13
w: na- sci- tur|de vir- gi-|ne pro-|gre- di-|tur|cu- i læ-|ten- tur|
w: fan- tu- lo|con- cin- ni-|tae mel-|li- flu-|o|ia- cen- ti|in- cu-|
w: glo- ri- æ|na- tum ab|Ly- ma-|so- ri-|æ|u- ni- cum|DE- I|
 D,8 E,16 | D,16 z8 | G,,8 G,,8 G,,8 | C,16 A,,8 | D,8 A,,16 | D,16 z8 | D,16 G,,8 | D,16 G,,8 | %21
w: An- ge-|li|gra- tu- le-|mur nos|fer- vu-|le|||
w: na- bu-|lo|vi- li pro-|stra- tu|le- ctu-|lo|Tri- ni-|ta- ti|
w: Fi- li-|um|li- stran- tem|o- mne|sæ- cu-|lo|||
 D,16 G,,8 | D,16 G,8 |"^Bar 25 is missing in the Alto part in the original print" F,16 F,8 | %24
w: ||sem- pi-|
w: glo- ri-|a in||
w: |||
 C,16 C,8 | D,8 E,16 | D,16 D,8 | B,,8 F,16 | G,8 D,16 | x24 |] %30
w: ter- na|sæ- *|cu- la,||||
w: ||||||
w: ||||||

